src/pos-icons/elevator-down.svg

<svg height="24" viewBox="0 0 24 24" width="24" xmlns="http://www.w3.org/2000/svg"><path d="m7 10 4-4h-3v-4h-2v4h-3zm10 0-4-4h3v-4h2v4h3zm-10 2h10c1.11 0 2 .9 2 2v6c0 1.11-.89 2-2 2h-10c-1.1 0-2-.89-2-2v-6c0-1.1.9-2 2-2m0 2v6h10v-6z"/></svg>

<?xml version="1.0" encoding="UTF-8"?><!DOCTYPE svg PUBLIC "-//W3C//DTD SVG 1.1//EN" "http://www.w3.org/Graphics/SVG/1.1/DTD/svg11.dtd"><svg xmlns="http://www.w3.org/2000/svg" xmlns:xlink="http://www.w3.org/1999/xlink" version="1.1" id="mdi-elevator-down" width="24" height="24" viewBox="0 0 24 24"><path d="M7 10L11 6H8V2H6V6H3L7 10M17 10L13 6H16V2H18V6H21L17 10M7 12H17C18.11 12 19 12.9 19 14V20C19 21.11 18.11 22 17 22H7C5.9 22 5 21.11 5 20V14C5 12.9 5.9 12 7 12M7 14V20H17V14H7Z" /></svg>
